!!!COM: Fux, Johann Joseph
!!!OMD: Gradus ad Parnassum Exercise
!!!YEC: CC0 1.0 Universal (Public Domain). Mark Gotham and FourScoreAndMore.org waive all rights to this document.
**kern	**kern
*part2	*part1
*staff2	*staff1
*I"2	*I"1
*I'Pno	*I'Pno
!!LO:PB:g=z
*clefGv2	*clefG2
*k[]	*k[]
!!LO:TX:omd:t=
*M2/2	*M2/2
=510	=510
!	!LO:TX:a:t=Fig. 88a; Species&colon; 5; Modal final&colon; c; Cantus firmus&colon; Lower
1c	2r
.	[2cc\
=511	=511
1d	2cc\]
.	2b\
=512	=512
1f	4a/
.	4b\
.	4cc\
.	4dd\
=513	=513
1e	2ee\
.	4dd\
.	4cc\
!!LO:LB:g=z
=514	=514
1g	4b\
.	4a/
.	2g/
=515	=515
1f	2a/
.	[2dd\
=516	=516
1e	4dd\]
.	4g/
.	[2cc\
=517	=517
1d	2cc\]
.	2b\
=518	=518
1c	1cc
==	==
*-	*-
!!!software: music21 v.9.7.1
!!!software: music21 v.9.7.1
!!!software: MuseScore 3.4.2
!!!RDF**kern: > = above
!!!RDF**kern: < = below
